packages/IcoMoon/src/ExitIcon/index.svg

<svg version="1.1" xmlns="http://www.w3.org/2000/svg" width="16" height="16" viewBox="0 0 16 16">
<path d="M12 10v-2h-5v-2h5v-2l3 3zM11 9v4h-5v3l-6-3v-13h11v5h-1v-4h-8l4 2v9h4v-3z"></path>
</svg>

<svg xmlns="http://www.w3.org/2000/svg" viewBox="0 0 16 16">
  <path d="M12 10V8H7V6h5V4l3 3zm-1-1v4H6v3l-6-3V0h11v5h-1V1H2l4 2v9h4V9z"/>
</svg>
